Obsidian/status/22s/copy-sync8.svg

<svg height="22" width="22" xmlns="http://www.w3.org/2000/svg"><path d="m19.634766 2.0253906-5.617188 6.8183594 1.982422 1.15625 4-7.6484375zm-14.634766 4.4746094-4 3.5 4.375-.625.9492188 5.625h3.3867187l-3.2109375-8zm7 2.5292969-3 .9707031 1 3 4-3zm3 1.5703121-5.1445312 4.400391h8.3437502l-1.199219-3zm-11.1640625 5.400391c-.4633 0-.8359375.372938-.8359375.835938v1.328124c0 .463001.3726375.835938.8359375.835938h13.1640625 1.164062c.463001 0 .835938-.374891.835938-.837891v-1.326171c0-.463001-.372938-.835938-.835938-.835938h-1.164062z" fill="#d3dae3"/></svg>

<svg xmlns="http://www.w3.org/2000/svg" width="22" height="22" x="0" y="0" version="1.1" xml:space="preserve">
 <defs>
  <style id="current-color-scheme" type="text/css">
   .ColorScheme-Text { color:#d3dae3; } .ColorScheme-Highlight { color:#5294e2; }
  </style>
 </defs>
 <path style="fill:currentColor" class="ColorScheme-Text" d="M 19.634766 2.0253906 L 14.017578 8.84375 L 16 10 L 20 2.3515625 L 19.634766 2.0253906 z M 5 6.5 L 1 10 L 5.375 9.375 L 6.3242188 15 L 9.7109375 15 L 6.5 7 L 5 6.5 z M 12 9.0292969 L 9 10 L 10 13 L 14 10 L 12 9.0292969 z M 15 10.599609 L 9.8554688 15 L 18.199219 15 L 17 12 L 15 10.599609 z M 3.8359375 16 C 3.3726375 16 3 16.372938 3 16.835938 L 3 18.164062 C 3 18.627063 3.3726375 19 3.8359375 19 L 17 19 L 18.164062 19 C 18.627063 19 19 18.625109 19 18.162109 L 19 16.835938 C 19 16.372937 18.627062 16 18.164062 16 L 17 16 L 3.8359375 16 z"/>
</svg>
